.local/share/icons/Gruvbox-Plus-Dark/panel/24/mstdn-panel.svg

<svg xmlns="http://www.w3.org/2000/svg" width="24" height="24" version="1.1">
 <defs>
  <style id="current-color-scheme" type="text/css">
   .ColorScheme-Text { color:#ebdbb2; } .ColorScheme-Highlight { color:#458588; }
  </style>
 </defs>
 <path style="fill:currentColor" class="ColorScheme-Text" d="M 9.6659888,4 C 7.080655,4 4.9999729,6.1018375 4.9999729,8.7128906 v 2.5742184 c 0,0.0034 0.002,0.0064 0.002,0.0098 0.0024,1.722632 0.163625,5.562883 1.521485,7.109375 C 7.747042,19.799811 10.599144,20 11.751976,20 c 2.04875,0 3.248047,-0.802734 3.248047,-0.802734 V 17.5 c 0,0 -1.521099,0.525921 -2.980469,0.5 C 10.969683,17.97132 9.324905,17.55981 9.099633,16.400391 9.069663,16.256512 9.056603,16.091447 9.035183,15.935547 9.243756,15.964112 9.44947,16 9.6660428,16 h 4.6679682 c 2.585334,0 4.666016,-2.101838 4.666016,-4.712891 V 8.7128906 C 19.000027,6.1018375 16.919345,4 14.334011,4 Z M 8.999973,8 a 1,1 0 0 1 1.0000002,1 1,1 0 0 1 -1.0000002,1 1,1 0 0 1 -1,-1 1,1 0 0 1 1,-1 z"/>
</svg>

<svg width="24" height="24" version="1.1" xmlns="http://www.w3.org/2000/svg">
  <defs>
    <style id="current-color-scheme" type="text/css">.ColorScheme-Text { color:#ebdbb2; } .ColorScheme-Highlight { color:#458588; } .ColorScheme-NeutralText { color:#fe8019; } .ColorScheme-PositiveText { color:#689d6a; } .ColorScheme-NegativeText { color:#fb4934; }</style>
  </defs>
  <path class="ColorScheme-Text" d="m9.666 4c-2.585 0-4.666 2.102-4.666 4.713v2.574c0 0.0034 2e-3 0.0064 2e-3 0.0098 0.0024 1.723 0.1636 5.563 1.521 7.109 1.224 1.394 4.076 1.594 5.229 1.594 2.049 0 3.248-0.8027 3.248-0.8027v-1.697s-1.521 0.5259-2.98 0.5c-1.05-0.02868-2.695-0.4402-2.92-1.6-0.02997-0.1439-0.04303-0.3089-0.06445-0.4648 0.2086 0.02856 0.4143 0.06445 0.6309 0.06445h4.668c2.585 0 4.666-2.102 4.666-4.713v-2.574c0-2.611-2.081-4.713-4.666-4.713zm-0.666 4a1 1 0 0 1 1 1 1 1 0 0 1-1 1 1 1 0 0 1-1-1 1 1 0 0 1 1-1z" fill="currentColor"/>
</svg>
